X:10
T:Mill of Howth.2voices. AJH.010
T:Duchess Of Hamilton’s Rant,aka.2voices. AJH.010
M:6/8
L:1/8
Q:3/8=120
S:A.J.Hughes MS
O:England
A:North Shropshire
N:First part like D of H’s…
V:1
V:2 clef=bass
Z:Neil Brookes 2006
K:G
[V:1] |: d | dBG c2e | dBG c2e | dBG dBG | AAA A2d |
[V:2] |: z | B,2G,C3 | B,2G,C3 | B,3G,3 | D,2D,D,3 |
%
[V:1] dBG c2e | dBG c2e | dgd cBA | GGGG2 😐
[V:2] B,2G,C3 | B,2G,C3 | B,2CD2D, | G,3G,,2 😐
%
[V:1] |: g | gfe ^def | g2fe2g | gdB cde | dcB A2d |
[V:2] |: z | E,2F,G,2A, | B,2A,G,3 | B,3A,B,C | B,A,G, D,2z |
%
[V:1] dBG c2e | dBG c2e | dgd cBA | GGGG2 😐
[V:2] B,2G,C3 | B,2G,C3 | B,2CD2D, | G,3G,,2 😐

